symbolic/24x24/actions/list-remove-user.svg

<svg xmlns="http://www.w3.org/2000/svg" width="24" height="24" viewBox="0 0 24 24">
 <defs>
  <style id="current-color-scheme" type="text/css">
   .ColorScheme-Text { color:#323a41; } .ColorScheme-Highlight { color:#4285f4; } .ColorScheme-NeutralText { color:#ff9800; } .ColorScheme-PositiveText { color:#4caf50; } .ColorScheme-NegativeText { color:#f44336; }
  </style>
 </defs>
 <path style="fill:currentColor" class="ColorScheme-NegativeText" d="M 3 1 C 1.892 1 1 1.892 1 3 L 1 13 C 1 14.108 1.892 15 3 15 L 13 15 C 14.108 15 15 14.108 15 13 L 15 3 C 15 1.892 14.108 1 13 1 L 3 1 z M 8 4 C 9.1046 4 10 4.89547 10 6 C 10 7.10453 9.10458 8 8 8 C 6.89542 8 6 7.10453 6 6 C 6 4.89547 6.89543 4 8 4 z M 8 9 C 11.9998 8.998 12 11.667969 12 11.667969 L 12 12 L 4 12 L 4 11.667969 C 4 11.667969 3.99985 9.0023 8 9 z" transform="translate(4 4)"/>
</svg>

<svg xmlns="http://www.w3.org/2000/svg" width="24" height="24"><defs><style id="current-color-scheme" type="text/css"></style></defs><path style="fill:currentColor;color:#f44336" d="M3 1c-1.108 0-2 .892-2 2v10c0 1.108.892 2 2 2h10c1.108 0 2-.892 2-2V3c0-1.108-.892-2-2-2H3zm5 3a2 2 0 1 1 0 4 2 2 0 0 1 0-4zm0 5c4-.002 4 2.668 4 2.668V12H4v-.332S4 9.002 8 9z" transform="translate(4 4)"/></svg>
